!!!!SEGMENT: pl-kk--kk-i-518--002_geiger-konstanze--sancta-maria.krn
!!!cenid: 18xx:1349
!!!COM: Geiger, Konstanze
!!!COM-rismID: pe30004300
!!!CDT: 1835-1890
!!!CNT: Austrian
!!!OTL: Sancta Maria
!!!PDT:
!!!AGN: Sacred
!!!SMS-siglum: PL-Kk
!!!SMS-shelfmark: Kk.I.518
!!!SMS-shelfwork: 002 W
!!!SMS-variant:
!!!SMS-altvar:
!!!NIFC-rismSourceID: 1001139110
!!!NIFC-islandoraID: pl-kk:15043
!!!URL-pdf-islandora: https://repozytorium.nifc.pl/islandora/object/pl-kk%3A15043/datastream/PDF/view
!!!URL-scan: https://polish.musicsources.pl/pl/lokalizacje/galeria/rekopisy/6128 @EN{Scan on Polish Music Sources Website} @PL{Skany w portalu Dziedzictwo Muzyki Polskiej w otwartym dostępie}
!!!ONB-nifc:
!!!AIN: 1 empty 1 soprn
!!!key:
**kern	**text	**dynam	**kern	**text	**dynam
*part2	*part2	*part2	*part1	*part1	*part1
*staff2	*staff2	*	*staff1	*staff1	*
*Iempty	*	*	*Isoprn	*	*
*I"Baſso.	*	*	*I"Soprano.	*	*
*I'B	*	*	*I'S	*	*
*clefF4	*	*	*clefC1	*	*
*k[f#]	*	*	*k[f#]	*	*
*f:	*	*	*f:	*	*
*M6/8	*	*	*M6/8	*	*
=1	=1	=1	=1	=1	=1
*2\right	*	*below	*2\right	*	*below
!LO:TX:a:t=P:problem=all\right&colon; global	!	!	!LO:TX:a:t=P:problem=all\right&colon; global	!	!
!LO:TX:a:t=P:problem=oznaczenia dynamiczne znajdują się na pięciolinii z lewej strony główki nuty	!	!	!LO:TX:a:t=P:problem=oznaczenia dynamiczne znajdują się na pięciolinii z lewej strony główki nuty	!	!
!LO:TX:a:t=P::problem=przed kluczem napis&colon; "Sancta Maria"	!	!	!LO:TX:a:t=P::problem=przed kluczem napis&colon; "Sancta Maria"	!	!
!LO:TX:i:a:t=Andante sostenuto.	!	!	!LO:TX:i:a:t=Anadante sostenuto.	!	!
4.G\	San-	.	4.g\	San-	.
4.G\	-cta	.	4.g\	-cta	.
=2	=2	=2	=2	=2	=2
2.BB/	San-	.	(>4.g\	san-	.
.	.	.	4.gg\	.	.
=3	=3	=3	=3	=3	=3
4.C/	-cta	.	4.gg\	.	.
4.C/	Ma-	.	4ee\)	-(c)ta	.
.	.	.	8cc\	Ma-	.
=4	=4	=4	=4	=4	=4
2.D\	-ri-	.	[>4.b\	-ri-	.
.	.	.	4b\]	.	.
.	.	.	(>16cc\LL	.	.
.	.	.	16dd\JJ)	.	.
=5	=5	=5	=5	=5	=5
!	!	!LO:DY:a:rj	!	!	!
2.C/	-a,	p	2.cc\	-a,	.
!	!	!	!LO:LB:g=original	!	!
=6	=6	=6	=6	=6	=6
(>2.BB/	Ma-	.	4.g\	Ma-	.
.	.	.	4.gg\	-ter	.
=7	=7	=7	=7	=7	=7
4.C/)	.	.	(>4aa\	Ma-	.
.	.	.	8gg\)	.	.
4.C/	-ter	.	(>4ee\	-ter	.
.	.	.	8cc\)	.	.
=8	=8	=8	=8	=8	=8
2.D\	De-	.	[>4.b\	De-	.
.	.	.	4b\]	.	.
.	.	.	(>16cc\LL	.	.
.	.	.	16dd\JJ)	.	.
!LO:LB:g=original	!	!	!	!	!
=9	=9	=9	=9	=9	=9
4C/	-i,	.	4cc\	-i	.
!	!	!LO:DY:b:rj	!	!	!LO:DY:b:rj
8C/	o-	f	8cc\	o-	f
(>8c\L	-ra	.	8cc\L	-ra	.
8B\J)	.	.	8dd\J	.	.
8B-X\	o-	.	8ee\	pro	.
=10	=10	=10	=10	=10	=10
4A\	-ra	.	2.ff#\	no-	.
8F#\	pro	.	.	.	.
(<4D/	no-	.	.	.	.
8C/)	.	.	.	.	.
=11	=11	=11	=11	=11	=11
4BBn/	-bis	.	4.ff#\	-bis,	.
8r	.	.	.	.	.
4.C/	o-	.	4.ee\	o-	.
=12	=12	=12	=12	=12	=12
4F#\	-ra	.	4dd\	-ra	.
8F#\	o-	.	8dd\	o-	.
(>8D\L	-ra,	.	8ff#\L	-ra	.
8E\J)	.	.	8ee\J	.	.
8F#\	o-	.	8dd\	pro	.
!	!	!	!LO:LB:g=original	!	!
=13	=13	=13	=13	=13	=13
4G\	-ra	.	4cc\	no-	.
8G\	pro	.	8cc\	-bis	.
4.GG/	no-	.	(>4ee\	no-	.
.	.	.	8dd\)	.	.
=14	=14	=14	=14	=14	=14
4C/	-bis	.	4cc\	-bis	.
8r	.	.	8r	.	.
!	!	!LO:DY:b:rj	!	!	!
4.G\	o-	p	(>4ee\	san-	.
.	.	.	8dd\)	.	.
!LO:LB:g=original	!	!	!	!	!
=15	=15	=15	=15	=15	=15
8G\	-ra	.	8cc\L	-cta	.
8r	.	.	16cc\L	.	.
.	.	.	16g\JJ	.	.
8G\	pro	.	16f#X/LL	ma-	.
.	.	.	16g/JJ	.	.
4.G\	no-	.	(>4ee\	-ri-	.
.	.	.	8dd\)	.	.
=16	=16	=16	=16	=16	=16
4c\	-bis	.	4cc\	-a	.
8r	.	.	8r	.	.
4r	.	.	4r	.	.
!	!	!LO:DY:b:rj	!	!	!
8c\	pro	f	8ee\	pro	.
=17	=17	=17	=17	=17	=17
2.G\	no-	.	2.gg\	no-	.
=18	=18	=18	=18	=18	=18
8C/	-bis	.	8ee\	-bis	.
4r	.	.	8r	.	.
.	.	.	8ee\	o-	.
4r	.	.	4ee\	-ra	.
!	!	!LO:DY:b:rj	!	!	!
8C/	pro	p	8cc\	pro	.
!	!	!	!LO:LB:g=original	!	!
=19	=19	=19	=19	=19	=19
2.G\	no-	.	2.b\	no-	.
=20	=20	=20	=20	=20	=20
4.C/	-bis	.	4.cc\	-bis	.
!	!	!LO:DY:b:rj	!	!	!LO:DY:b:rj
4.C/	o-	pp	4.cc\	o-	p
=21	=21	=21	=21	=21	=21
4.C/	-ra	.	4.cc\	-ra	.
4.C/	pro	.	4.cc\	pro	.
=22	=22	=22	=22	=22	=22
2.C/	no-	.	2.cc\	no-	.
=23	=23	=23	=23	=23	=23
4.C/	-bis.	.	4.cc\	-bis.	.
4r	.	.	4r	.	.
8r	.	.	8r	.	.
==	==	==	==	==	==
*-	*-	*-	*-	*-	*-
!!!system-decoration: [(s1,s2)]
!!!RDF**kern: > = above
!!!RDF**kern: < = below
!!!EED: Mateusz Mrugas
!!!EEV: 2021-01-10
!!!ENC: Berenika Jozajtis
!!!END: 2020-01-04
